X:71
T:Painters Sett Of Quadrilles No.1. Le4.071, The
B:L.Leadley MS#4 c1850
Z:Village Music Project, 2016 Steve Mansfield
M:6/8
L:1/8
Q:3/8=90
N:* Rest inserted by transcriber
K:Eb
B, | !segno! !f! E>FE EGB | e2E E2F | !p! GAB BAG | FFF F2B, |
!f! E>FE EGB | e2E E2 (E/F/) | !p! GAB BGF | [B,E][B,E][B,E] [B,E]2 :|
"*"z | !p! E3 GFE | FBB B2z | e3 c2f | d<BB B2 =B |
!f! cde BGE | !ff! dfb gec | cde G2E | [G,E][G,E][G,E] [G,E]2z |
B3 d>cB | g2f c2e | dfb gec | B3 A2F |
B3 dcB | g2f c2e | dfb bc'=a | b3 b3 !segno! ||
e3 d>c=B | ceg gfe | f2a g2f | ede c2G |
e3 d>c=B | ceg afd | c2c ed=B | c3 B=AF !segno! |]

